packages/icons/src/pin-wave-fill.svg

<svg xmlns="http://www.w3.org/2000/svg" width="24" height="24" fill="none" viewBox="0 0 24 24">
  <path fill="#000" d="M11.78 9c-3.15 0-6 2.41-6 6.15 0 2.49 2 5.44 6 8.85 4-3.41 6-6.36 6-8.85 0-3.74-2.85-6.15-6-6.15Zm0 7.5c-.83 0-1.5-.67-1.5-1.5s.67-1.5 1.5-1.5 1.5.67 1.5 1.5-.67 1.5-1.5 1.5Zm0-12.5c1.93 0 3.68.78 4.95 2.05l-1.41 1.41a5.022 5.022 0 0 0-7.08 0L6.83 6.05A6.976 6.976 0 0 1 11.78 4Zm7.78-.77-1.41 1.41A8.972 8.972 0 0 0 11.79 2C9.31 2 7.05 3.01 5.42 4.63L4 3.22C6 1.23 8.75 0 11.79 0s5.78 1.23 7.77 3.23Z"/>
</svg>

<svg width="24" height="24" viewBox="0 0 24 24" fill="none" xmlns="http://www.w3.org/2000/svg">
<path d="M11.78 9C8.63 9 5.78 11.41 5.78 15.15C5.78 17.64 7.78 20.59 11.78 24C15.78 20.59 17.78 17.64 17.78 15.15C17.78 11.41 14.93 9 11.78 9ZM11.78 16.5C10.95 16.5 10.28 15.83 10.28 15C10.28 14.17 10.95 13.5 11.78 13.5C12.61 13.5 13.28 14.17 13.28 15C13.28 15.83 12.61 16.5 11.78 16.5ZM11.78 4C13.71 4 15.46 4.78 16.73 6.05L15.32 7.46C14.41 6.56 13.16 6 11.78 6C10.4 6 9.15 6.56 8.24 7.46L6.83 6.05C8.1 4.78 9.85 4 11.78 4ZM19.56 3.23L18.15 4.64C16.52 3.01 14.27 2 11.79 2C9.31 2 7.05 3.01 5.42 4.63L4 3.22C6 1.23 8.75 0 11.79 0C14.83 0 17.57 1.23 19.56 3.23Z" fill="black"/>
</svg>
